32x32/apps/com.musixmatch.Musixmatch.svg

<svg xmlns="http://www.w3.org/2000/svg" width="32" height="32" version="1.1">
 <circle style="opacity:0.2" cx="16" cy="17" r="14"/>
 <circle style="fill:#ff395d" cx="16" cy="16" r="14"/>
 <path style="fill:#f4f4f7;fill-opacity:0.7" d="m 21.406097,9.3588453 -5.359952,3.7723467 c -0.01538,0.01083 -0.04616,0.03249 -0.04616,0.03249 L 10.543294,9.3919196 C 10.242512,9.1790482 9.8924231,9.0834121 9.5501319,9.0833806 8.7548919,9.0832868 8.0011276,9.5992883 8.0011276,10.359978 v 2.86038 l -0.00113,8.503013 C 8.0000003,22.483998 8.7538337,23 9.5490053,23 9.8913654,23 10.241351,22.904364 10.542166,22.691429 L 16,18.886628 c 2.715692,1.922079 5.40497,3.804801 5.40497,3.804801 C 21.705751,22.9043 22.055876,23 22.398132,23 23.193406,23 24,22.484061 24,21.723372 v -8.503015 -2.918155 c 0,-0.7606259 -0.805558,-1.2518957 -1.600729,-1.2518957 -0.34236,0 -0.692345,0.095636 -0.993161,0.308539 z"/>
 <polygon style="fill:#f4f4f7;fill-opacity:0.6" transform="matrix(0.75118106,0,0,0.70494899,7.9999887,8.9894476)" points="15.95 9.99 10.65 5.92 5.32 9.99 10.65 14.04"/>
 <polyline style="fill:#f4f4f7;fill-opacity:0.6" transform="matrix(0.75118106,0,0,0.70494899,7.9999887,8.9894476)" points="0 5.99 0 13.99 5.32 9.99 0 5.99"/>
 <polyline style="fill:#f4f4f7;fill-opacity:0.6" transform="matrix(0.75118106,0,0,0.70494899,7.9999887,8.9894476)" points="15.95 9.99 21.3 14.04 21.3 5.92 15.95 9.99"/>
 <path style="fill:#f4f4f7" d="m 21.333321,9.4079909 -5.333333,3.7556871 3.978978,2.866243 4.021021,-2.866243 v -2.861476 c 0,-1.0873355 -1.523809,-1.7884226 -2.666666,-0.8942111 z"/>
 <path style="fill:#f4f4f7" d="M 10.548762,9.3695364 C 9.5478206,8.6625714 8.0030519,9.249611 8.0030519,10.336947 v 2.873255 l 3.9923631,2.820522 4.004574,-2.867046 z"/>
 <path style="opacity:0.2" d="M 16 18.886719 L 10.542969 22.691406 C 10.242154 22.904341 9.8911882 23 9.5488281 23 C 8.7543562 23 8.0013272 22.484138 8 21.724609 L 8 22.722656 C 8.0000027 23.483283 8.7536565 24 9.5488281 24 C 9.8911882 24 10.242154 23.904341 10.542969 23.691406 L 16 19.886719 C 18.715692 21.808798 21.404297 23.691406 21.404297 23.691406 C 21.705078 23.904277 22.056182 24 22.398438 24 C 23.193711 24 24 23.483345 24 22.722656 L 24 21.722656 C 24 22.483345 23.193711 23 22.398438 23 C 22.056182 23 21.705078 22.904277 21.404297 22.691406 C 21.404297 22.691406 18.715692 20.808798 16 18.886719 z"/>
 <path style="fill:#f4f4f7;opacity:0.2" d="M 16 2 A 14 14 0 0 0 2 16 A 14 14 0 0 0 2.0214844 16.585938 A 14 14 0 0 1 16 3 A 14 14 0 0 1 29.978516 16.414062 A 14 14 0 0 0 30 16 A 14 14 0 0 0 16 2 z"/>
</svg>

<svg xmlns="http://www.w3.org/2000/svg" width="32" height="32"><circle style="opacity:.2" cx="16" cy="17" r="14"/><circle style="fill:#ff395d" cx="16" cy="16" r="14"/><path style="fill:#f4f4f7;fill-opacity:.7" d="m21.406 9.359-5.36 3.772-.046.033-5.457-3.772c-.3-.213-.65-.309-.993-.309-.795 0-1.549.516-1.549 1.277v2.86L8 21.723C8 22.484 8.754 23 9.549 23c.342 0 .692-.096.993-.309L16 18.887c2.716 1.922 5.405 3.804 5.405 3.804.3.213.65.309.993.309.795 0 1.602-.516 1.602-1.277V10.302c0-.76-.806-1.252-1.6-1.252-.343 0-.693.096-.994.309z"/><path style="fill:#f4f4f7;fill-opacity:.6" transform="matrix(.75118 0 0 .70495 8 8.99)" d="m15.95 9.99-5.3-4.07-5.33 4.07 5.33 4.05z"/><path style="fill:#f4f4f7;fill-opacity:.6" transform="matrix(.75118 0 0 .70495 8 8.99)" d="M0 5.99v8l5.32-4-5.32-4M15.95 9.99l5.35 4.05V5.92l-5.35 4.07"/><path style="fill:#f4f4f7" d="M21.333 9.408 16 13.164l3.979 2.866L24 13.164v-2.862c0-1.087-1.524-1.788-2.667-.894zM10.549 9.37c-1.001-.707-2.546-.12-2.546.967v2.873l3.992 2.82L16 13.165z"/><path style="opacity:.2" d="m16 18.887-5.457 3.804c-.3.213-.652.309-.994.309C8.754 23 8 22.484 8 21.725v.998C8 23.483 8.754 24 9.549 24c.342 0 .693-.096.994-.309L16 19.887c2.716 1.922 5.404 3.804 5.404 3.804.301.213.652.309.994.309.796 0 1.602-.517 1.602-1.277v-1c0 .76-.806 1.277-1.602 1.277-.342 0-.693-.096-.994-.309 0 0-2.688-1.882-5.404-3.804z"/><path style="fill:#f4f4f7;opacity:.2" d="M16 2A14 14 0 0 0 2 16a14 14 0 0 0 .021.586A14 14 0 0 1 16 3a14 14 0 0 1 13.979 13.414A14 14 0 0 0 30 16 14 14 0 0 0 16 2z"/></svg>
